src/2-landmarks/totem--turn.svg

<svg width="1300" height="1000" fill="none" xmlns="http://www.w3.org/2000/svg"><path d="M0 900h1300v100H0V900Z" fill="#000"/><path fill-rule="evenodd" clip-rule="evenodd" d="M676.5 597a3.5 3.5 0 1 0 0 7h1.5v25c0 5.523 4.477 10 10 10h20c5.523 0 10-4.477 10-10v-25h1.5a3.5 3.5 0 1 0 0-7h-43Zm8.5 7h26v23a5 5 0 0 1-5 5h-16a5 5 0 0 1-5-5v-23Zm18.442-151c-1.89 2.06-2.89 5.05-2.89 9v10.48c0 8.267 3.79 12.4 11.37 12.4 3.79 0 6.63-1.04 8.53-3.14 1.893-2.087 2.84-5.173 2.84-9.26V462c0-4-.94-7-2.84-9s-4.81-3-8.53-3c-3.72 0-6.59.94-8.48 3Zm13.43 9.95v9c0 2.607-.377 4.477-1.13 5.61a4.188 4.188 0 0 1-3.82 1.74 4.143 4.143 0 0 1-3.77-1.74c-.754-1.16-1.13-3.03-1.13-5.61v-9c.006-2.58.383-4.443 1.13-5.59a4.178 4.178 0 0 1 3.77-1.71 4.259 4.259 0 0 1 2.124.357c.665.3 1.242.766 1.676 1.353.76 1.15 1.15 3.01 1.15 5.59Zm-50.788 19.348 1.687-4.519h14.36l1.688 4.519a3.138 3.138 0 0 0 2.941 2.041c2.233 0 3.752-2.265 2.905-4.331l-11.099-27.055a3.909 3.909 0 0 0-7.229 0l-11.099 27.055c-.847 2.066.672 4.331 2.905 4.331a3.14 3.14 0 0 0 2.941-2.041Zm3.697-9.859 5.15-13.77 5.19 13.77h-10.34Z" fill="#000"/><path d="M727.271 456.435c0 2.21 2.394 3.591 4.308 2.486l2.892-1.672v23.88a3.21 3.21 0 0 0 6.42 0v-25.561a5.038 5.038 0 0 0-7.608-4.334l-4.605 2.731a2.872 2.872 0 0 0-1.407 2.47Z" fill="#000"/><path fill-rule="evenodd" clip-rule="evenodd" d="M615 357c-8.284 0-15 6.716-15 15v190c0 8.284 6.716 15 15 15h33v286h-10c-11.046 0-20 8.954-20 20v17h7v-15c0-8.284 6.716-15 15-15h116c8.284 0 15 6.716 15 15v15h7v-17c0-11.046-8.954-20-20-20h-10V577h37c8.284 0 15-6.716 15-15V372c0-8.284-6.716-15-15-15H615Zm126 506h-86V577h86v286Zm42-293c5.523 0 10-4.477 10-10V374c0-5.523-4.477-10-10-10H617c-5.523 0-10 4.477-10 10v186c0 5.523 4.477 10 10 10h166Z" fill="#000"/></svg>

<svg width="1300" height="1000" viewBox="0 0 1300 1000" fill="none" xmlns="http://www.w3.org/2000/svg">
<path d="M0 900H1300V1000H0V900Z" fill="black"/>
<path fill-rule="evenodd" clip-rule="evenodd" d="M676.5 597C674.567 597 673 598.567 673 600.5C673 602.433 674.567 604 676.5 604H678V629C678 634.523 682.477 639 688 639H708C713.523 639 718 634.523 718 629V604H719.5C721.433 604 723 602.433 723 600.5C723 598.567 721.433 597 719.5 597H676.5ZM685 604H711V627C711 629.761 708.761 632 706 632H690C687.239 632 685 629.761 685 627V604Z" fill="black"/>
<path fill-rule="evenodd" clip-rule="evenodd" d="M703.442 453C701.552 455.06 700.552 458.05 700.552 462V472.48C700.552 480.747 704.342 484.88 711.922 484.88C715.712 484.88 718.552 483.84 720.452 481.74C722.345 479.653 723.292 476.567 723.292 472.48V462C723.292 458 722.352 455 720.452 453C718.552 451 715.642 450 711.922 450C708.202 450 705.332 450.94 703.442 453ZM716.872 462.95V471.95C716.872 474.557 716.495 476.427 715.742 477.56C715.314 478.16 714.736 478.637 714.065 478.943C713.395 479.248 712.655 479.372 711.922 479.3C711.196 479.367 710.465 479.241 709.803 478.935C709.142 478.63 708.572 478.156 708.152 477.56C707.398 476.4 707.022 474.53 707.022 471.95V462.95C707.028 460.37 707.405 458.507 708.152 457.36C708.578 456.772 709.149 456.305 709.81 456.006C710.471 455.706 711.199 455.583 711.922 455.65C712.649 455.585 713.38 455.708 714.046 456.007C714.711 456.307 715.288 456.773 715.722 457.36C716.482 458.51 716.872 460.37 716.872 462.95Z" fill="black"/>
<path fill-rule="evenodd" clip-rule="evenodd" d="M666.084 482.298L667.771 477.779H682.131L683.819 482.298C684.277 483.526 685.45 484.339 686.76 484.339C688.993 484.339 690.512 482.074 689.665 480.008L678.566 452.953C677.964 451.487 676.536 450.529 674.951 450.529C673.366 450.529 671.939 451.487 671.337 452.953L660.238 480.008C659.391 482.074 660.91 484.339 663.143 484.339C664.453 484.339 665.625 483.526 666.084 482.298ZM669.781 472.439L674.931 458.669L680.121 472.439H669.781Z" fill="black"/>
<path d="M727.271 456.435C727.271 458.645 729.665 460.026 731.579 458.921L734.471 457.249V481.129C734.471 482.902 735.909 484.339 737.681 484.339C739.454 484.339 740.891 482.902 740.891 481.129V455.568C740.891 452.785 738.636 450.529 735.853 450.529C734.949 450.529 734.061 450.773 733.283 451.234L728.678 453.965C727.806 454.482 727.271 455.421 727.271 456.435Z" fill="black"/>
<path fill-rule="evenodd" clip-rule="evenodd" d="M615 357C606.716 357 600 363.716 600 372V562C600 570.284 606.716 577 615 577H648V863H638C626.954 863 618 871.954 618 883V900H625V885C625 876.716 631.716 870 640 870H756C764.284 870 771 876.716 771 885V900H778V883C778 871.954 769.046 863 758 863H748V577H785C793.284 577 800 570.284 800 562V372C800 363.716 793.284 357 785 357H615ZM741 863H655V577H741V863ZM783 570C788.523 570 793 565.523 793 560V374C793 368.477 788.523 364 783 364H617C611.477 364 607 368.477 607 374V560C607 565.523 611.477 570 617 570H783Z" fill="black"/>
</svg>
